X:8350
T:Junior Crehan's Favourite
T:Knotted Cord
T:Knot on the Cord
R:Reel
Z:id:hn-reel-198
M:C|
L:1/8
Q:1/4=200
K:Ador
|:~A3B AE~E2|A2Bd edBA|~G3A GEDE|G2BG dGBG|
~A3B AE~E2|A2Bd edBA|G2 (3B^cd efge|1 dBGA BAAG:|2 dBGA BAA2||
|:ea~a2 ea~a2|eaab aged|eg~g2 eg~g2|egga gedg|
ea~a2 ea~a2|eaab aged|~B3d gaba|1 gedB BA~A2:|2 gedB BAGB|]
